X: 1082
T: Boscastle Breakdown (A38)
N: page A38
N: heptatonic
M:4/4
L:1/8
R:Reel
Z:bil@blueskiesink.com
K:G
"G"G2 B>c d2 B2|"C"c>d e>f g4|"G"G2 B>c d2 B2|"D"A2 A2 A4|
"G"G2 B>c d2 B2|"C"c>d e>f g4|"D"d>g f>e d>c B>A|"G"G2 G2 G4::
"G"g>d B>d g>d B>d|"C"g>e c>e g>e c>e|"G"g>d B>d g>d B>d|"D"B2 A2 A4|
"G"g>d B>d g>d B>d|"C"g>e c>e g>e c>e|"D"a>g f>e d>c B>A|"G"G2 B2 G4:|
